X: 40543
T: Tommy Peoples'
R: reel
M: 4/4
K: Gmajor
|:~G3B cABG|ADDE FGAF|~G3B cABG|1 Addc BGGF:|2 Addc BGGf||
|:g2dg egde|g2dg eaaf|g2dg egdB|1 cBAc BGGf:|2 cBAc BGGF||

